icons/city-15.svg

<svg xmlns="http://www.w3.org/2000/svg" width="14.9976" height="14.9976" viewBox="0 0 14.9976 14.9976">
  <title>city-15</title>
  <path d="M13.6368,3.9994H11.9981V1.3608A0.3609,0.3609,0,0,0,11.6371,1h-0.278a0.3609,0.3609,0,0,0-.3609.3609h0V3.9994H9.36a0.3609,0.3609,0,0,0-.3609.3609h0V9.9984H5.3621a0.3629,0.3629,0,0,0-.3629.3629v3.2745a0.3629,0.3629,0,0,0,.3629.3619h8.2747a0.3609,0.3609,0,0,0,.3609-0.3609h0V4.36a0.3609,0.3609,0,0,0-.3609-0.3609h0ZM6.9989,11.9981h-1v-1h1v1Zm2,0h-1v-1h1v1Zm2,0h-1v-1h1v1Zm0-2h-1v-1h1v1Zm0-2h-1v-1h1v1Zm0-2h-1v-1h1v1Zm2,5.999h-1v-1h1v1Zm0-2h-1v-1h1v1Zm0-2h-1v-1h1v1Zm0-2h-1v-1h1v1ZM7.9987,1.3608A0.3609,0.3609,0,0,0,7.6378,1H5.36a0.3609,0.3609,0,0,0-.3609.3609h0V3H3.36A0.3609,0.3609,0,0,0,3,3.36H3V3.9994H1.3608A0.3609,0.3609,0,0,0,1,4.36H1v9.2765a0.3609,0.3609,0,0,0,.3609.3609H3.9994V8.9986H7.9987V1.3608ZM3,11.9981H2v-1H3v1Zm0-2H2v-1H3v1Zm0-2H2v-1H3v1Zm0-2H2v-1H3v1Zm2,2h-1v-1h1v1Zm0-2h-1v-1h1v1Zm2,2h-1v-1h1v1Zm0-2h-1v-1h1v1Zm0-2h-1V3h1v1Z"/>
</svg>

<svg id="Layer_1" data-name="Layer 1" xmlns="http://www.w3.org/2000/svg" width="15" height="15" viewBox="0 0 15 15">
  <title>city-15</title>
  <path d="M13.639,4H12V1.361A.361.361,0,0,0,11.639,1h-.278A.361.361,0,0,0,11,1.361h0V4H9.361A.361.361,0,0,0,9,4.361H9V10H5.363A.363.363,0,0,0,5,10.363v3.275A.363.363,0,0,0,5.363,14h8.276A.361.361,0,0,0,14,13.639h0V4.361A.361.361,0,0,0,13.639,4ZM7,12H6V11H7Zm2,0H8V11H9Zm2,0H10V11h1Zm0-2H10V9h1Zm0-2H10V7h1Zm0-2H10V5h1Zm2,6H12V11h1Zm0-2H12V9h1Zm0-2H12V7h1Zm0-2H12V5h1ZM8,1.361A.361.361,0,0,0,7.639,1H5.361A.361.361,0,0,0,5,1.361H5V3H3.361A.361.361,0,0,0,3,3.361H3V4H1.361A.361.361,0,0,0,1,4.361H1v9.278A.361.361,0,0,0,1.361,14H4V9H8ZM3,12H2V11H3Zm0-2H2V9H3ZM3,8H2V7H3ZM3,6H2V5H3ZM5,8H4V7H5ZM5,6H4V5H5ZM7,8H6V7H7ZM7,6H6V5H7ZM7,4H6V3H7Z"/>
</svg>
